Origami/32x32/apps/bandcamp.svg

<svg width="32" height="32" version="1" xmlns="http://www.w3.org/2000/svg">
 <path d="m5.9741857 6.9999925c-2.1947913 2.209e-4 -3.9739662 1.7909525-3.9741857 4.0000005v11.999999c2.195e-4 2.209048 1.7793944 3.99978 3.9741857 4h2.9806392c0.2979544-0.0017 0.5947784-0.03704 0.8848773-0.105468 0.2000718 0.0152 0.3888018 0.104666 0.5899178 0.105468 0.0052 1e-5 0.01035 1e-5 0.01553 0 2.117295 0 4.016764-0.877586 5.509138-2.203125 1.675746 1.295595 3.66616 2.203125 5.91664 2.203125h0.0059c3.538152-0.0051 6.82161-1.915962 8.590684-5 0.943269-1.64993 0.600752-3.740338-0.81894-4.998046 1.422312-1.257729 1.765773-3.350674 0.820802-5.001953-1.769648-3.085035-5.055266-4.9960217-8.594565-5.0000005h-0.0039c-3.162777 0-5.877462 1.6260392-7.703846 3.9824215-0.408508-0.208687-0.831111-0.33645-1.272982-0.476562-0.247647-2.0008071-1.935996-3.5034047-3.9392561-3.5058595z" style="opacity:.2"/>
 <path d="m5.9741857 6c-2.1947913 2.209e-4 -3.9739662 1.7909525-3.9741857 4v12c2.195e-4 2.209048 1.7793944 3.999779 3.9741857 4h2.9806392c0.2979544-0.0017 0.5947784-0.03704 0.8848773-0.105469 0.2000718 0.0152 0.3888018 0.104667 0.5899178 0.105469 0.0052 1e-5 0.01035 1e-5 0.01553 0 2.117295 0 4.016764-0.877587 5.509138-2.203125 1.675746 1.295595 3.66616 2.203125 5.91664 2.203125h0.0059c3.538152-0.0051 6.82161-1.915962 8.590684-5 0.943269-1.649931 0.600752-3.740339-0.81894-4.998047 1.422312-1.257729 1.765773-3.350674 0.820802-5.001953-1.769648-3.0850345-5.055266-4.9960212-8.594565-5h-0.0039c-3.162777 0-5.877462 1.6260392-7.703846 3.9824219-0.408508-0.2086871-0.831111-0.3364507-1.272982-0.4765625-0.247647-2.000807-1.935996-3.5034046-3.9392561-3.5058594z" style="fill:#4f4f4f"/>
 <path d="M 6,11 V 23 H 9 V 22.736328 A 4.5,4.5 0 0 0 10.5,23 4.5,4.5 0 0 0 15,18.5 4.5,4.5 0 0 0 10.5,14 4.5,4.5 0 0 0 9,14.263672 V 11 Z m 16,0 a 6,6 0 0 0 -6,6 6,6 0 0 0 6,6 6,6 0 0 0 5.1875,-3 H 22 a 3,3 0 0 1 -3,-3 3,3 0 0 1 3,-3 h 5.189453 A 6,6 0 0 0 22,11 Z M 10.5,17 A 1.5,1.5 0 0 1 12,18.5 1.5,1.5 0 0 1 10.5,20 1.5,1.5 0 0 1 9,18.5 1.5,1.5 0 0 1 10.5,17 Z" style="opacity:.2"/>
 <path d="m6 10v12h3v-0.263672a4.5 4.5 0 0 0 1.5 0.263672 4.5 4.5 0 0 0 4.5 -4.5 4.5 4.5 0 0 0 -4.5 -4.5 4.5 4.5 0 0 0 -1.5 0.263672v-3.263672zm16 0a6 6 0 0 0 -6 6 6 6 0 0 0 6 6 6 6 0 0 0 5.1875 -3h-5.1875a3 3 0 0 1 -3 -3 3 3 0 0 1 3 -3h5.189453a6 6 0 0 0 -5.189453 -3zm-11.5 6a1.5 1.5 0 0 1 1.5 1.5 1.5 1.5 0 0 1 -1.5 1.5 1.5 1.5 0 0 1 -1.5 -1.5 1.5 1.5 0 0 1 1.5 -1.5z" style="fill:#74bed2"/>
 <path d="m5.9746094 6c-2.1947913 2.209e-4 -3.9743899 1.7909525-3.9746094 4v1c2.195e-4 -2.209048 1.7798181-3.9997791 3.9746094-4h2.9804687c2.0032599 0.00245 3.6918059 1.5050523 3.9394529 3.505859 0.441871 0.140112 0.86493 0.267876 1.273438 0.476563 1.826384-2.3563824 4.540348-3.982422 7.703125-3.982422h0.0039c3.539299 0.00398 6.824102 1.914965 8.59375 5 0.272784 0.476674 0.427139 0.990199 0.490234 1.509766 0.108986-0.845494-0.042134-1.726749-0.490228-2.509766-1.769648-3.0850345-5.054451-4.9960212-8.59375-5h-0.0039c-3.162783 0-5.876747 1.6260392-7.703131 3.9824219-0.408508-0.2086871-0.831567-0.3364507-1.273438-0.4765625-0.247647-2.000807-1.936193-3.5034046-3.9394529-3.5058594zm24.148438 10.501953c-0.141936 0.177643-0.299624 0.345263-0.474609 0.5 0.748532 0.663126 1.187577 1.558564 1.30664 2.498047 0.131298-1.060789-0.152631-2.146454-0.832031-2.998047z" style="fill:#ffffff;opacity:.1"/>
</svg>

<svg xmlns="http://www.w3.org/2000/svg" width="32" height="32" version="1">
 <path style="opacity:0.2" d="M 5.9741857,6.9999925 C 3.7793944,7.0002134 2.0002195,8.790945 2,10.999993 v 7.499999 4.5 c 2.195e-4,2.209048 1.7793944,3.99978 3.9741857,4 h 2.9806392 c 0.2979544,-0.0017 0.5947784,-0.03704 0.8848773,-0.105468 0.2000718,0.0152 0.3888018,0.104666 0.5899178,0.105468 0.0052,10e-6 0.01035,10e-6 0.01553,0 2.117295,0 4.016764,-0.877586 5.509138,-2.203125 1.675746,1.295595 3.66616,2.203125 5.91664,2.203125 h 0.0059 c 3.538152,-0.0051 6.82161,-1.915962 8.590684,-5 0.943269,-1.64993 0.600752,-3.740338 -0.81894,-4.998046 1.422312,-1.257729 1.765773,-3.350674 0.820802,-5.001953 C 28.699726,8.914958 25.414108,7.0039713 21.874809,6.9999925 h -0.0039 c -3.162777,0 -5.877462,1.6260392 -7.703846,3.9824215 -0.408508,-0.208687 -0.831111,-0.33645 -1.272982,-0.476562 C 12.646434,8.5050449 10.958085,7.0024473 8.9548249,6.9999925 Z"/>
 <path style="fill:#4f4f4f" d="M 5.9741857,6 C 3.7793944,6.0002209 2.0002195,7.7909525 2,10 v 7.5 4.5 c 2.195e-4,2.209048 1.7793944,3.999779 3.9741857,4 H 8.9548249 C 9.2527793,25.9983 9.5496033,25.96296 9.8397022,25.894531 10.039774,25.909731 10.228504,25.999198 10.42962,26 c 0.0052,10e-6 0.01035,10e-6 0.01553,0 2.117295,0 4.016764,-0.877587 5.509138,-2.203125 C 17.630034,25.09247 19.620448,26 21.870928,26 h 0.0059 c 3.538152,-0.0051 6.82161,-1.915962 8.590684,-5 0.943269,-1.649931 0.600752,-3.740339 -0.81894,-4.998047 C 31.070884,14.744224 31.414345,12.651279 30.469374,11 28.699726,7.9149655 25.414108,6.0039788 21.874809,6 h -0.0039 C 18.708132,6 15.993447,7.6260392 14.167063,9.9824219 13.758555,9.7737348 13.335952,9.6459712 12.894081,9.5058594 12.646434,7.5050524 10.958085,6.0024548 8.9548249,6 Z"/>
 <path style="opacity:0.2" d="M 6,11 V 23 H 9 V 22.736328 A 4.5,4.5 0 0 0 10.5,23 4.5,4.5 0 0 0 15,18.5 4.5,4.5 0 0 0 10.5,14 4.5,4.5 0 0 0 9,14.263672 V 11 Z m 16,0 a 6,6 0 0 0 -6,6 6,6 0 0 0 6,6 6,6 0 0 0 5.1875,-3 H 22 a 3,3 0 0 1 -3,-3 3,3 0 0 1 3,-3 h 5.189453 A 6,6 0 0 0 22,11 Z M 10.5,17 A 1.5,1.5 0 0 1 12,18.5 1.5,1.5 0 0 1 10.5,20 1.5,1.5 0 0 1 9,18.5 1.5,1.5 0 0 1 10.5,17 Z"/>
 <path style="fill:#74bed2" d="M 6,10 V 17.5 22 H 9 V 21.736328 A 4.5,4.5 0 0 0 10.5,22 4.5,4.5 0 0 0 15,17.5 4.5,4.5 0 0 0 10.5,13 4.5,4.5 0 0 0 9,13.263672 V 10 Z m 16,0 a 6,6 0 0 0 -6,6 6,6 0 0 0 6,6 6,6 0 0 0 5.1875,-3 H 22 a 3,3 0 0 1 -3,-3 3,3 0 0 1 3,-3 h 5.189453 A 6,6 0 0 0 22,10 Z M 10.5,16 A 1.5,1.5 0 0 1 12,17.5 1.5,1.5 0 0 1 10.5,19 1.5,1.5 0 0 1 9,17.5 1.5,1.5 0 0 1 10.5,16 Z"/>
 <path style="opacity:0.1;fill:#ffffff" d="M 5.9746094,6 C 3.7798181,6.0002209 2.0002195,7.7909525 2,10 v 1 C 2.0002195,8.790952 3.7798181,7.0002209 5.9746094,7 h 2.9804687 c 2.0032599,0.00245 3.6918059,1.5050523 3.9394529,3.505859 0.441871,0.140112 0.86493,0.267876 1.273438,0.476563 C 15.994353,8.6260396 18.708317,7 21.871094,7 h 0.0039 c 3.539299,0.00398 6.824102,1.914965 8.59375,5 0.272784,0.476674 0.427139,0.990199 0.490234,1.509766 C 31.067964,12.664272 30.916844,11.783017 30.46875,11 28.699102,7.9149655 25.414299,6.0039788 21.875,6 H 21.8711 C 18.708317,6 15.994353,7.6260392 14.167969,9.9824219 13.759461,9.7737348 13.336402,9.6459712 12.894531,9.5058594 12.646884,7.5050524 10.958338,6.0024548 8.9550781,6 Z M 30.123047,16.501953 c -0.141936,0.177643 -0.299624,0.345263 -0.474609,0.5 0.748532,0.663126 1.187577,1.558564 1.30664,2.498047 0.131298,-1.060789 -0.152631,-2.146454 -0.832031,-2.998047 z"/>
</svg>
